icons/box.svg

<svg width="24" height="24" viewBox="0 0 24 24" fill="none" xmlns="http://www.w3.org/2000/svg">
<path fill-rule="evenodd" clip-rule="evenodd" d="M11.5144 1.12584C11.8164 0.958052 12.1836 0.958052 12.4856 1.12584L21.4856 6.12584C21.8031 6.30221 22 6.63683 22 7V17C22 17.3632 21.8031 17.6978 21.4856 17.8742L12.4856 22.8742C12.1836 23.0419 11.8164 23.0419 11.5144 22.8742L2.51436 17.8742C2.19689 17.6978 2 17.3632 2 17V7C2 6.63683 2.19689 6.30221 2.51436 6.12584L11.5144 1.12584ZM4 8.69951V16.4116L11 20.3005V12.5884L4 8.69951ZM13 12.5884V20.3005L20 16.4116V8.69951L13 12.5884ZM18.9409 7L12 10.856L5.05913 7L12 3.14396L18.9409 7Z" fill="black"/>
</svg>

<svg
  width="24"
  height="24"
  viewBox="0 0 24 24"
  xmlns="http://www.w3.org/2000/svg"
>
  <path
    fill-rule="evenodd"
    clip-rule="evenodd"
    d="M11.514 1.126a1 1 0 0 1 .972 0l9 5A1 1 0 0 1 22 7v10a1 1 0 0 1-.514.874l-9 5a1 1 0 0 1-.972 0l-9-5A1 1 0 0 1 2 17V7a1 1 0 0 1 .514-.874l9-5zM4 8.7v7.712l7 3.889v-7.713L4 8.7zm9 3.888v7.713l7-3.89V8.7l-7 3.888zM18.94 7L12 10.856 5.06 7 12 3.144 18.94 7z"
  />
</svg>
